X: 1
T: Alta Vittoria
C: Fabritio Caroso
D: Renaissonics: Renaissance Dances & Improvisations (Titanic, Ti 232)
M: C|
L: 1/8
K: C
   gf "A"| "C"e2ed   ecde |"Bb"f2fe f2gf | "C"e2dc "G7"dcdB | "C"c6 :|
|:_Bc "B"|"Bb"d2dc   dcde |    f2fe f2gf | "C"e2dc "G7"dcdB | "C"c6 :|
|: FG "C"| "F"A2c2 "G7"f4 | "C"e2ed cBAG | "F"A2c2 "G7"d4   | "C"c6 :|
|: Bc "D"| "G"d2dc   dcBA |    d2dc d2gf | "C"e2dc "G7"dcdB | "C"c6 :|
